carriers/postEs.svg

<svg width="128" height="64" viewBox="0 0 128 64" fill="none" xmlns="http://www.w3.org/2000/svg">
<rect width="128" height="64" rx="6" fill="#FFCD00"/>
<path d="M21.8636 38.5049C21.8636 38.843 21.964 39.1736 22.1519 39.4547C22.3399 39.7358 22.607 39.9548 22.9195 40.084C23.232 40.2132 23.5758 40.2468 23.9074 40.1805C24.239 40.1142 24.5434 39.951 24.7822 39.7115C25.021 39.4721 25.1834 39.1672 25.2488 38.8354C25.3142 38.5037 25.2798 38.16 25.1497 37.8478C25.0197 37.5357 24.8 37.2691 24.5184 37.0819C24.2368 36.8947 23.906 36.7952 23.5678 36.7961C23.3436 36.7961 23.1216 36.8404 22.9146 36.9263C22.7075 37.0122 22.5195 37.1382 22.3611 37.2969C22.2028 37.4556 22.0774 37.644 21.992 37.8513C21.9067 38.0586 21.863 38.2807 21.8636 38.5049ZM33.7109 33.3741C33.3862 35.7437 32.2148 37.9157 30.4131 39.4887C28.6114 41.0617 26.3013 41.9294 23.9096 41.9315H23.5678C22.8908 41.9333 22.2285 41.7342 21.6646 41.3595C21.1008 40.9848 20.6607 40.4512 20.4002 39.8264C20.1397 39.2015 20.0703 38.5134 20.201 37.8491C20.3316 37.1848 20.6564 36.5742 21.1341 36.0946C21.6119 35.6149 22.2212 35.2877 22.8849 35.1544C23.5487 35.0211 24.2371 35.0877 24.863 35.3457C25.4889 35.6038 26.0242 36.0417 26.4012 36.604C26.7781 37.1664 26.9798 37.8279 26.9807 38.5049C26.9807 38.9139 26.9082 39.3196 26.7666 39.7033C27.4494 39.4466 28.0958 39.1019 28.6895 38.678V38.5049C28.6877 37.4912 28.3854 36.5008 27.8208 35.6589C27.2562 34.817 26.4547 34.1614 25.5176 33.7749C24.5805 33.3885 23.5498 33.2885 22.5559 33.4877C21.562 33.6869 20.6495 34.1763 19.9336 34.894C19.2178 35.6118 18.7309 36.5256 18.5343 37.5201C18.3378 38.5145 18.4405 39.5449 18.8294 40.481C19.2184 41.4171 19.8761 42.2168 20.7195 42.7791C21.5629 43.3415 22.5541 43.6411 23.5678 43.6402C26.4475 43.6439 29.2316 42.6078 31.4083 40.7225C33.585 38.8372 35.0078 36.2294 35.4151 33.3787L33.7109 33.3741ZM16.7374 33.3741H11.7251C11.9915 35.2047 12.677 36.9491 13.7282 38.4714C14.7794 39.9936 16.1679 41.2526 17.7854 42.1502C17.1008 41.0578 16.739 39.7941 16.742 38.5049L16.7374 33.3741ZM37.2241 31.6699C37.3134 33.5185 37.0265 35.366 36.3807 37.1004C35.7348 38.8348 34.7435 40.42 33.4668 41.7599C32.1901 43.0998 30.6547 44.1665 28.9535 44.8953C27.2523 45.6242 25.4208 46 23.5701 46C21.7193 46 19.8879 45.6242 18.1867 44.8953C16.4855 44.1665 14.95 43.0998 13.6733 41.7599C12.3967 40.42 11.4053 38.8348 10.7595 37.1004C10.1137 35.366 9.82672 33.5185 9.9161 31.6699H18.4416V33.9847C19.285 33.032 20.3775 32.3336 21.5963 31.9682C22.8151 31.6027 24.1117 31.5848 25.3401 31.9162C26.5685 32.2477 27.68 32.9156 28.5495 33.8445C29.419 34.7735 30.0119 35.9267 30.2615 37.1743C31.428 35.7471 32.0797 33.9686 32.1115 32.1256V31.6699H37.2241Z" fill="#193C6B"/>
<path d="M23.5677 26.2931H22.7292V23.1035C22.351 23.0985 21.9817 23.2191 21.6794 23.4465C21.3771 23.6739 21.1588 23.9953 21.0587 24.3601C20.9586 24.7249 20.9825 25.1126 21.1265 25.4625C21.2705 25.8123 21.5265 26.1045 21.8544 26.2931H19.6262C19.3965 25.8014 19.2863 25.2623 19.3045 24.7199C19.3227 24.1775 19.4689 23.6471 19.731 23.1718C19.5942 23.1357 19.4533 23.1174 19.3118 23.1172C18.9346 23.1139 18.5669 23.2352 18.2657 23.4622C17.9645 23.6893 17.7467 24.0093 17.646 24.3728C17.5452 24.7363 17.5672 25.1228 17.7086 25.4725C17.85 25.8222 18.1028 26.1154 18.4278 26.3068H16.2041C15.8848 25.6475 15.7861 24.903 15.9225 24.1832C16.059 23.4635 16.4235 22.8068 16.962 22.3101C17.5005 21.8135 18.1845 21.5033 18.913 21.4255C19.6414 21.3476 20.3755 21.5062 21.0068 21.8777C21.5263 21.578 22.1158 21.4208 22.7156 21.4221C22.9986 21.4223 23.2804 21.459 23.554 21.5314C23.8275 21.4584 24.1094 21.4216 24.3924 21.4221C24.9924 21.419 25.5823 21.5763 26.1012 21.8777C26.8816 21.4299 27.8073 21.3084 28.6769 21.5397C29.5464 21.771 30.2895 22.3363 30.7444 23.1126C31.0214 23.5945 31.1777 24.1363 31.1999 24.6917C31.2222 25.2472 31.1096 25.7997 30.872 26.3022H28.7167C29.0413 26.1111 29.2939 25.8182 29.4354 25.469C29.5768 25.1198 29.5992 24.7337 29.499 24.3705C29.3989 24.0073 29.1818 23.6872 28.8814 23.4598C28.581 23.2324 28.214 23.1104 27.8372 23.1126C27.6957 23.1125 27.5548 23.1309 27.418 23.1673C27.6823 23.6418 27.8296 24.1724 27.8478 24.7153C27.8661 25.2581 27.7547 25.7974 27.5228 26.2886H25.2992C25.6275 26.0997 25.8837 25.8072 26.0276 25.4569C26.1716 25.1066 26.195 24.7184 26.0944 24.3533C25.9937 23.9882 25.7746 23.6669 25.4715 23.4398C25.1684 23.2128 24.7984 23.0929 24.4198 23.0989V26.2886L23.5677 26.2931Z" fill="#193C6B"/>
<path d="M16.2041 27.7877C16.2041 27.584 16.2645 27.3849 16.3777 27.2155C16.4908 27.0462 16.6516 26.9142 16.8398 26.8363C17.028 26.7583 17.235 26.7379 17.4348 26.7777C17.6346 26.8174 17.8181 26.9155 17.9621 27.0595C18.1061 27.2035 18.2042 27.387 18.2439 27.5868C18.2837 27.7865 18.2633 27.9936 18.1853 28.1818C18.1074 28.3699 17.9754 28.5308 17.806 28.6439C17.6367 28.7571 17.4376 28.8175 17.2339 28.8175C16.9608 28.8175 16.6988 28.709 16.5057 28.5159C16.3126 28.3227 16.2041 28.0608 16.2041 27.7877Z" fill="#193C6B"/>
<path d="M28.8579 27.7877C28.857 27.5829 28.9169 27.3825 29.03 27.2118C29.1431 27.0411 29.3044 26.9078 29.4933 26.8288C29.6822 26.7498 29.8903 26.7287 30.0913 26.7681C30.2922 26.8075 30.4769 26.9056 30.6221 27.0501C30.7672 27.1946 30.8661 27.3789 30.9064 27.5797C30.9467 27.7804 30.9265 27.9886 30.8483 28.1779C30.7702 28.3672 30.6376 28.529 30.4674 28.6429C30.2972 28.7567 30.097 28.8175 29.8923 28.8175C29.6187 28.8175 29.3563 28.7091 29.1625 28.5162C28.9686 28.3232 28.8591 28.0612 28.8579 27.7877Z" fill="#193C6B"/>
<path d="M25.7002 27.7877C25.7002 27.584 25.7606 27.3849 25.8737 27.2155C25.9869 27.0462 26.1477 26.9142 26.3359 26.8363C26.5241 26.7583 26.7311 26.7379 26.9309 26.7777C27.1307 26.8174 27.3142 26.9155 27.4582 27.0595C27.6022 27.2035 27.7003 27.387 27.74 27.5868C27.7797 27.7865 27.7594 27.9936 27.6814 28.1818C27.6035 28.3699 27.4715 28.5308 27.3021 28.6439C27.1328 28.7571 26.9337 28.8175 26.73 28.8175C26.4569 28.8175 26.1949 28.709 26.0018 28.5159C25.8087 28.3227 25.7002 28.0608 25.7002 27.7877Z" fill="#193C6B"/>
<path d="M22.5425 27.7877C22.5416 27.5827 22.6016 27.3821 22.7149 27.2113C22.8282 27.0405 22.9897 26.9072 23.1789 26.8284C23.3681 26.7495 23.5764 26.7287 23.7775 26.7684C23.9786 26.8082 24.1633 26.9068 24.3082 27.0517C24.4532 27.1967 24.5518 27.3814 24.5915 27.5825C24.6313 27.7835 24.6104 27.9919 24.5316 28.1811C24.4527 28.3703 24.3195 28.5318 24.1487 28.6451C23.9779 28.7584 23.7773 28.8184 23.5723 28.8175C23.4371 28.8175 23.3031 28.7908 23.1782 28.7391C23.0533 28.6873 22.9397 28.6115 22.8441 28.5159C22.7485 28.4202 22.6726 28.3067 22.6209 28.1818C22.5691 28.0568 22.5425 27.9229 22.5425 27.7877Z" fill="#193C6B"/>
<path d="M19.3756 27.7877C19.3747 27.5829 19.4346 27.3825 19.5477 27.2118C19.6608 27.0411 19.822 26.9078 20.0109 26.8288C20.1998 26.7498 20.408 26.7287 20.6089 26.7681C20.8099 26.8075 20.9946 26.9056 21.1397 27.0501C21.2848 27.1946 21.3838 27.3789 21.4241 27.5797C21.4643 27.7804 21.4441 27.9886 21.366 28.1779C21.2878 28.3672 21.1553 28.529 20.9851 28.6429C20.8149 28.7567 20.6147 28.8175 20.4099 28.8175C20.2726 28.8205 20.136 28.7962 20.0082 28.7458C19.8803 28.6955 19.7638 28.6202 19.6654 28.5243C19.567 28.4284 19.4886 28.3139 19.435 28.1875C19.3813 28.061 19.3534 27.9251 19.3528 27.7877" fill="#193C6B"/>
<path d="M18.4417 29.3915H28.6895V31.1048H18.4417V29.3915Z" fill="#193C6B"/>
<path d="M23.2852 19.531V19.1118H22.7156V18.5559H23.2852V18H23.8547V18.5696H24.4243V19.1392H23.8547V19.5584C24.0403 19.6254 24.1963 19.7557 24.2953 19.9264C24.3942 20.0971 24.4298 20.2972 24.3958 20.4915C24.3618 20.6858 24.2603 20.862 24.1093 20.9889C23.9582 21.1158 23.7672 21.1854 23.5699 21.1854C23.3727 21.1854 23.1817 21.1158 23.0306 20.9889C22.8796 20.862 22.7781 20.6858 22.7441 20.4915C22.7101 20.2972 22.7457 20.0971 22.8446 19.9264C22.9436 19.7557 23.0996 19.6254 23.2852 19.5584" fill="#193C6B"/>
<path d="M56.3619 35.5067C54.6622 36.5228 52.5935 37.3293 50.9577 37.4022C49.1943 37.4888 47.2531 37.1744 46.7109 35.4064C45.9089 32.8091 47.5083 29.4828 49.5861 28.3892C52.4705 26.8536 54.8627 27.6829 55.6829 28.5259L56.2844 25.4274C55.1651 24.9753 53.9771 24.7165 52.7712 24.6619C48.4196 24.6619 46.3281 26.7807 45.0249 28.5441C43.5577 30.5217 41.5983 35.5112 45.2436 38.9561C46.3281 39.9859 48.3103 40.6147 50.1876 40.4871C52.5391 40.4063 54.8102 39.6117 56.699 38.2088C56.7859 38.3923 56.8864 38.5689 56.9998 38.7373C57.7562 39.7975 59.1323 40.3352 61.1281 40.3504C64.4499 40.3504 66.6416 39.0472 67.3115 35.2971L67.5256 34.0486C67.5396 33.9135 67.5624 33.7796 67.594 33.6476C67.6502 33.2612 67.6791 32.8715 67.6806 32.4811C67.6806 29.6468 65.949 28.4165 62.8779 28.4165C59.588 28.4165 57.4509 29.7015 56.7082 33.4289C58.5308 32.2487 60.2806 31.0321 62.5771 31.0321C63.8484 31.0321 64.2357 31.5424 64.2357 32.4947C64.2388 32.8738 64.2052 33.2522 64.1355 33.6248C64.1392 33.6656 64.1313 33.7067 64.1127 33.7433L63.8849 34.9781C63.4748 36.983 62.928 37.6848 61.3742 37.6848C60.1894 37.6848 59.7474 37.2838 59.7474 36.2631C59.7482 35.8327 59.7832 35.403 59.8522 34.9781C59.8978 34.7275 60.2122 33.2648 60.2122 33.2648C60.2122 33.2648 58.0706 34.4632 56.3573 35.4839" fill="#193C6B"/>
<path d="M76.8989 28.4484C75.4687 28.3773 74.0591 28.8112 72.9164 29.6741L73.0758 28.7628H69.8862L67.8767 40.0678H71.3489L72.8116 31.8659C73.982 31.537 75.191 31.3654 76.4067 31.3555L76.8989 28.4484Z" fill="#193C6B"/>
<path d="M84.9684 28.4483C83.5386 28.3796 82.1297 28.8132 80.9859 29.674L81.1591 28.7627H77.9694L75.9463 40.0677H79.4139L80.8766 31.8658C82.047 31.5369 83.256 31.3653 84.4718 31.3554L84.9684 28.4483Z" fill="#193C6B"/>
<path d="M114.104 30.7586C114.965 30.7586 116.323 30.8452 117.749 30.9864L118.1 28.8995C116.772 28.5839 115.41 28.4309 114.045 28.4438C111.402 28.4438 108.846 29.0043 108.846 31.9889C108.846 33.6384 109.78 34.6226 111.507 35.3061L112.354 35.6387C113.571 36.1491 113.835 36.3268 113.835 36.869C113.835 37.8351 112.924 38.0264 111.826 38.0264C110.153 38.0264 109.484 37.8897 108.003 37.8214L107.647 39.8719C108.956 40.1668 110.293 40.3196 111.634 40.3275C114.856 40.3275 117.307 39.3615 117.307 36.4134C117.307 34.8322 116.514 33.9573 114.541 33.1827L113.589 32.8136C112.655 32.4309 112.286 32.2349 112.286 31.761C112.286 30.795 113.288 30.7586 114.109 30.7586" fill="#193C6B"/>
<path d="M103.901 33.7842L103.651 35.0145C103.263 37.0149 102.739 37.7166 101.167 37.7166C99.9872 37.7166 99.527 37.3111 99.527 36.2949C99.5223 35.865 99.5635 35.4357 99.65 35.0145L99.9006 33.7842C100.27 31.7838 100.848 31.0821 102.366 31.0821C103.637 31.0821 104.006 31.5879 104.006 32.5403C104.015 32.9574 103.98 33.3743 103.901 33.7842ZM102.667 28.4484C99.3675 28.4484 97.2395 29.7288 96.515 33.4607L96.2872 34.5497C96.1763 35.1215 96.1289 35.7037 96.1459 36.2858C96.1459 38.9879 97.7818 40.3412 100.903 40.3412C104.234 40.3412 106.421 39.0426 107.091 35.3016L107.301 34.0576C107.392 33.5413 107.446 33.0189 107.46 32.4947C107.46 29.665 105.733 28.4393 102.667 28.4393" fill="#193C6B"/>
<path d="M91.9312 33.4516H87.8621L87.9168 33.2921C88.1264 32.0618 88.6367 30.9044 90.3318 30.9044C91.6714 30.9044 92.0542 31.5742 92.0542 32.4127C92.0408 32.7617 91.9996 33.1091 91.9312 33.4516ZM90.6462 28.4393C87.3517 28.4393 85.0051 29.8063 84.3398 33.7751L84.2487 34.372C84.1264 34.997 84.0563 35.631 84.0391 36.2676C84.0391 39.1292 85.7797 40.3412 89.0514 40.3412C90.5888 40.3504 92.1227 40.193 93.6262 39.8719L93.9953 37.5936C91.8628 37.7348 90.874 37.7895 89.6939 37.7895C87.8712 37.7895 87.37 37.3338 87.37 36.4225C87.388 36.0626 87.4337 35.7046 87.5067 35.3517H94.9932C95.1972 34.4541 95.3087 33.538 95.3259 32.6177C95.3259 30.1571 93.9862 28.4757 90.6553 28.4757" fill="#193C6B"/>
</svg>

<svg xmlns="http://www.w3.org/2000/svg" width="128" height="64" fill="none"><rect width="128" height="64" fill="#FFCD00" rx="6"/><path fill="#193C6B" d="M21.864 38.505a1.71 1.71 0 1 0 3.418 0 1.71 1.71 0 0 0-3.418 0Zm11.847-5.13a9.902 9.902 0 0 1-9.801 8.556h-.342a3.422 3.422 0 1 1 3.199-2.228 8.39 8.39 0 0 0 1.922-1.025v-.173a5.126 5.126 0 1 0-5.121 5.135A11.952 11.952 0 0 0 35.415 33.38l-1.704-.005Zm-16.974 0h-5.012a12.016 12.016 0 0 0 6.06 8.775 6.835 6.835 0 0 1-1.043-3.645l-.005-5.13Zm20.487-1.705A13.672 13.672 0 0 1 23.57 46 13.669 13.669 0 0 1 9.916 31.67h8.526v2.315a6.835 6.835 0 0 1 11.82 3.19 8.201 8.201 0 0 0 1.85-5.05v-.455h5.112ZM23.568 26.293h-.839v-3.19a1.709 1.709 0 0 0-.875 3.19h-2.228a3.444 3.444 0 0 1 .105-3.121 1.713 1.713 0 0 0-1.303 3.135h-2.224a3.414 3.414 0 0 1 4.803-4.43c.52-.299 1.109-.456 1.709-.455.283 0 .564.037.838.11a3.367 3.367 0 0 1 2.547.346 3.413 3.413 0 0 1 4.643 1.235 3.445 3.445 0 0 1 .128 3.19h-2.155a1.714 1.714 0 0 0-1.299-3.136 3.416 3.416 0 0 1 .105 3.122h-2.224a1.709 1.709 0 0 0-.88-3.19v3.19l-.851.004ZM16.204 27.788a1.03 1.03 0 1 1 2.06 0 1.03 1.03 0 0 1-2.06 0ZM28.858 27.788a1.034 1.034 0 1 1 2.069-.01 1.034 1.034 0 0 1-2.07.01ZM25.7 27.788a1.03 1.03 0 1 1 2.061 0 1.03 1.03 0 0 1-2.06 0ZM22.543 27.788a1.034 1.034 0 1 1 2.068-.01 1.034 1.034 0 0 1-2.069.01ZM19.376 27.788a1.034 1.034 0 1 1 1.034 1.03 1.033 1.033 0 0 1-1.057-1.03"/><path fill="#193C6B" d="M18.442 29.392h10.247v1.713H18.442v-1.713ZM23.285 19.531v-.42h-.57v-.555h.57V18h.57v.57h.57v.57h-.57v.418a.838.838 0 1 1-.57 0M56.362 35.507c-1.7 1.016-3.769 1.822-5.404 1.895-1.764.087-3.705-.228-4.247-1.996-.802-2.597.797-5.923 2.875-7.017 2.885-1.535 5.277-.706 6.097.137l.601-3.099a10.67 10.67 0 0 0-3.513-.765c-4.351 0-6.443 2.119-7.746 3.882-1.467 1.978-3.427 6.967.219 10.412 1.084 1.03 3.066 1.659 4.944 1.531a11.587 11.587 0 0 0 6.511-2.278c.087.183.187.36.3.528.757 1.06 2.133 1.598 4.13 1.613 3.32 0 5.513-1.303 6.182-5.053l.215-1.248a3.09 3.09 0 0 1 .068-.401c.056-.387.085-.777.087-1.167 0-2.834-1.732-4.065-4.803-4.065-3.29 0-5.427 1.285-6.17 5.013 1.823-1.18 3.573-2.397 5.87-2.397 1.27 0 1.658.51 1.658 1.463.003.379-.03.757-.1 1.13a.218.218 0 0 1-.023.118l-.228 1.235c-.41 2.005-.957 2.707-2.51 2.707-1.186 0-1.628-.401-1.628-1.422.001-.43.036-.86.105-1.285.046-.25.36-1.713.36-1.713s-2.141 1.198-3.855 2.219M76.899 28.448a6.106 6.106 0 0 0-3.983 1.226l.16-.911h-3.19l-2.01 11.305h3.473l1.463-8.202c1.17-.329 2.379-.5 3.595-.51l.492-2.908ZM84.968 28.448a6.134 6.134 0 0 0-3.982 1.226l.173-.911h-3.19l-2.023 11.305h3.468l1.463-8.202c1.17-.33 2.379-.5 3.595-.51l.496-2.908ZM114.104 30.759c.861 0 2.219.086 3.645.227l.351-2.087a16.851 16.851 0 0 0-4.055-.455c-2.643 0-5.199.56-5.199 3.545 0 1.65.934 2.634 2.661 3.317l.847.333c1.217.51 1.481.688 1.481 1.23 0 .966-.911 1.157-2.009 1.157-1.673 0-2.342-.136-3.823-.205l-.356 2.05c1.309.296 2.646.449 3.987.456 3.222 0 5.673-.965 5.673-3.914 0-1.58-.793-2.456-2.766-3.23l-.952-.37c-.934-.382-1.303-.578-1.303-1.052 0-.966 1.002-1.002 1.823-1.002M103.901 33.784l-.25 1.23c-.388 2-.912 2.703-2.484 2.703-1.18 0-1.64-.406-1.64-1.422-.005-.43.037-.86.123-1.28l.25-1.23c.37-2.001.948-2.703 2.466-2.703 1.271 0 1.64.506 1.64 1.458a5.9 5.9 0 0 1-.105 1.244Zm-1.234-5.336c-3.3 0-5.427 1.28-6.152 5.013l-.228 1.089a7.906 7.906 0 0 0-.141 1.736c0 2.702 1.636 4.055 4.757 4.055 3.331 0 5.518-1.298 6.188-5.04l.21-1.243c.091-.517.145-1.04.159-1.563 0-2.83-1.727-4.056-4.793-4.056M91.931 33.452h-4.069l.055-.16c.21-1.23.72-2.388 2.415-2.388 1.34 0 1.722.67 1.722 1.509a6.598 6.598 0 0 1-.123 1.039Zm-1.285-5.013c-3.294 0-5.64 1.367-6.306 5.336l-.091.597a11.486 11.486 0 0 0-.21 1.896c0 2.861 1.74 4.073 5.012 4.073 1.538.01 3.072-.148 4.575-.47l.37-2.277c-2.133.14-3.122.195-4.302.195-1.823 0-2.324-.455-2.324-1.367.018-.36.064-.717.137-1.07h7.486c.204-.898.316-1.814.333-2.734 0-2.46-1.34-4.142-4.67-4.142"/></svg>
